%%%
VERSION: 1
LANGUAGE:ENGLISH%%%
MODULE MODULE1
LOCAL PERS speeddata vSpeed:=[300,150,0,0];
LOCAL PERS tooldata gripper:=[TRUE,[[0,0,0],[1,0,0,0]],[2,[0,0,50],[0,0,0,0],0,0,0]];
LOCAL PERS wobjdata wobj1:=[FALSE,TRUE,"",[[0,0,0],[1,0,0,0]],[[0,0,0],[1,0,0,0]]];
PERS string procname:= "main_module1";
PROC main_module1()
MoveJ [[0,-275.86614894183265,311.44646663520723],[6.123233995736766e-17,6.123233995736766e-17,1,-6.123233995736766e-17],[0,0,0,0],[9E9,9E9,9E9,9E9,9E9,9E9]],vSpeed,z10,gripper,\WObj:=wobj1;
MoveJ [[13.721473000778474,-271.6173753957204,306.6285573563009],[6.123233995736766e-17,6.123233995736766e-17,1,-6.123233995736766e-17],[0,0,0,0],[9E9,9E9,9E9,9E9,9E9,9E9]],vSpeed,z10,gripper,\WObj:=wobj1;
MoveJ [[28.018509205176343,-267.60286035568606,301.37173641602294],[6.123233995736766e-17,6.123233995736766e-17,1,-6.123233995736766e-17],[0,0,0,0],[9E9,9E9,9E9,9E9,9E9,9E9]],vSpeed,z10,gripper,\WObj:=wobj1;
MoveJ [[42.808885298390834,-263.7891383208615,295.73870548028344],[6.123233995736766e-17,6.123233995736766e-17,1,-6.123233995736766e-17],[0,0,0,0],[9E9,9E9,9E9,9E9,9E9,9E9]],vSpeed,z10,gripper,\WObj:=wobj1;
MoveJ [[58.01037796561918,-260.14274379037823,289.7921662149927],[6.123233995736766e-17,6.123233995736766e-17,1,-6.123233995736766e-17],[0,0,0,0],[9E9,9E9,9E9,9E9,9E9,9E9]],vSpeed,z10,gripper,\WObj:=wobj1;
MoveJ [[73.5407638920586,-256.6302112633682,283.59482028606095],[6.123233995736766e-17,6.123233995736766e-17,1,-6.123233995736766e-17],[0,0,0,0],[9E9,9E9,9E9,9E9,9E9,9E9]],vSpeed,z10,gripper,\WObj:=wobj1;
MoveJ [[89.31781976290635,-253.218075238963,277.20936935939847],[6.123233995736766e-17,6.123233995736766e-17,1,-6.123233995736766e-17],[0,0,0,0],[9E9,9E9,9E9,9E9,9E9,9E9]],vSpeed,z10,gripper,\WObj:=wobj1;
MoveJ [[105.25932226335965,-249.8728702162943,270.6985151009155],[6.123233995736766e-17,6.123233995736766e-17,1,-6.123233995736766e-17],[0,0,0,0],[9E9,9E9,9E9,9E9,9E9,9E9]],vSpeed,z10,gripper,\WObj:=wobj1;
MoveJ [[121.28304807861568,-246.5611306944939,264.1249591765223],[6.123233995736766e-17,6.123233995736766e-17,1,-6.123233995736766e-17],[0,0,0,0],[9E9,9E9,9E9,9E9,9E9,9E9]],vSpeed,z10,gripper,\WObj:=wobj1;
MoveJ [[137.3067738938717,-243.2493911726935,257.55140325212903],[6.123233995736766e-17,6.123233995736766e-17,1,-6.123233995736766e-17],[0,0,0,0],[9E9,9E9,9E9,9E9,9E9,9E9]],vSpeed,z10,gripper,\WObj:=wobj1;
MoveJ [[153.24827639432502,-239.9041861500248,251.04054899364604],[6.123233995736766e-17,6.123233995736766e-17,1,-6.123233995736766e-17],[0,0,0,0],[9E9,9E9,9E9,9E9,9E9,9E9]],vSpeed,z10,gripper,\WObj:=wobj1;
MoveJ [[169.02533226517275,-236.49205012561958,244.65509806698356],[6.123233995736766e-17,6.123233995736766e-17,1,-6.123233995736766e-17],[0,0,0,0],[9E9,9E9,9E9,9E9,9E9,9E9]],vSpeed,z10,gripper,\WObj:=wobj1;
MoveJ [[184.55571819161221,-232.9795175986095,238.45775213805183],[6.123233995736766e-17,6.123233995736766e-17,1,-6.123233995736766e-17],[0,0,0,0],[9E9,9E9,9E9,9E9,9E9,9E9]],vSpeed,z10,gripper,\WObj:=wobj1;
MoveJ [[199.75721085884055,-229.33312306812627,232.5112128727611],[6.123233995736766e-17,6.123233995736766e-17,1,-6.123233995736766e-17],[0,0,0,0],[9E9,9E9,9E9,9E9,9E9,9E9]],vSpeed,z10,gripper,\WObj:=wobj1;
MoveJ [[214.54758695205504,-225.51940103330173,226.87818193702157],[6.123233995736766e-17,6.123233995736766e-17,1,-6.123233995736766e-17],[0,0,0,0],[9E9,9E9,9E9,9E9,9E9,9E9]],vSpeed,z10,gripper,\WObj:=wobj1;
MoveJ [[228.8446231564529,-221.50488599326746,221.62136099674356],[6.123233995736766e-17,6.123233995736766e-17,1,-6.123233995736766e-17],[0,0,0,0],[9E9,9E9,9E9,9E9,9E9,9E9]],vSpeed,z10,gripper,\WObj:=wobj1;
MoveJ [[242.56609615723133,-217.25611244715515,216.80345171783728],[6.123233995736766e-17,6.123233995736766e-17,1,-6.123233995736766e-17],[0,0,0,0],[9E9,9E9,9E9,9E9,9E9,9E9]],vSpeed,z10,gripper,\WObj:=wobj1;
MoveJ [[255.62978263958763,-212.73961489409672,212.48715576621296],[6.123233995736766e-17,6.123233995736766e-17,1,-6.123233995736766e-17],[0,0,0,0],[9E9,9E9,9E9,9E9,9E9,9E9]],vSpeed,z10,gripper,\WObj:=wobj1;
MoveJ [[267.95345928871893,-207.92192783322372,208.73517480778088],[6.123233995736766e-17,6.123233995736766e-17,1,-6.123233995736766e-17],[0,0,0,0],[9E9,9E9,9E9,9E9,9E9,9E9]],vSpeed,z10,gripper,\WObj:=wobj1;
MoveJ [[279.4549027898227,-202.76958576366795,205.61021050845127],[6.123233995736766e-17,6.123233995736766e-17,1,-6.123233995736766e-17],[0,0,0,0],[9E9,9E9,9E9,9E9,9E9,9E9]],vSpeed,z10,gripper,\WObj:=wobj1;
MoveJ [[290.05188982809585,-197.24912318456103,203.1749645341344],[6.123233995736766e-17,6.123233995736766e-17,1,-6.123233995736766e-17],[0,0,0,0],[9E9,9E9,9E9,9E9,9E9,9E9]],vSpeed,z10,gripper,\WObj:=wobj1;
MoveJ [[299.6621970887358,-191.3270745950348,201.4921385507405],[6.123233995736766e-17,6.123233995736766e-17,1,-6.123233995736766e-17],[0,0,0,0],[9E9,9E9,9E9,9E9,9E9,9E9]],vSpeed,z10,gripper,\WObj:=wobj1;
MoveJ [[308.2036012569397,-184.96997449422088,200.62443422417977],[6.123233995736766e-17,6.123233995736766e-17,1,-6.123233995736766e-17],[0,0,0,0],[9E9,9E9,9E9,9E9,9E9,9E9]],vSpeed,z10,gripper,\WObj:=wobj1;
MoveJ [[315.5938790179049,-178.1443573812511,200.6345532203626],[6.123233995736766e-17,6.123233995736766e-17,1,-6.123233995736766e-17],[0,0,0,0],[9E9,9E9,9E9,9E9,9E9,9E9]],vSpeed,z10,gripper,\WObj:=wobj1;
MoveJ [[321.75080705682853,-170.816757755257,201.5851972051991],[6.123233995736766e-17,6.123233995736766e-17,1,-6.123233995736766e-17],[0,0,0,0],[9E9,9E9,9E9,9E9,9E9,9E9]],vSpeed,z10,gripper,\WObj:=wobj1;
MoveJ [[325.80822421931936,-164.51048158424862,203.21800144558583],[5.968409405404523e-17,6.274239260864357e-17,0.9996881284295757,0.024972902854338595],[0,0,0,0],[9E9,9E9,9E9,9E9,9E9,9E9]],vSpeed,z10,gripper,\WObj:=wobj1;
MoveJ [[329.06659627929287,-157.92178904663976,205.7242855939466],[5.807951436747363e-17,6.42305918091038e-17,0.9987378096422127,0.05022735898965146],[0,0,0,0],[9E9,9E9,9E9,9E9,9E9,9E9]],vSpeed,z10,gripper,\WObj:=wobj1;
MoveJ [[331.57817172491065,-151.06583124655094,209.02647098499426],[5.638489589052981e-17,6.572322594580552e-17,0.9970884823391671,0.07625325164592278],[0,0,0,0],[9E9,9E9,9E9,9E9,9E9,9E9]],vSpeed,z10,gripper,\WObj:=wobj1;
MoveJ [[333.3951990443344,-143.95775928810252,213.04697895344188],[5.457483506611272e-17,6.723381805918716e-17,0.9946431347398108,0.1033684406139641],[0,0,0,0],[9E9,9E9,9E9,9E9,9E9,9E9]],vSpeed,z10,gripper,\WObj:=wobj1;
MoveJ [[334.56992672572545,-136.61272427541488,217.7082308340023],[5.263213607075938e-17,6.876523224666923e-17,0.9912847394199714,0.13173672757845237],[0,0,0,0],[9E9,9E9,9E9,9E9,9E9,9E9]],vSpeed,z10,gripper,\WObj:=wobj1;
MoveJ [[335.1546032572454,-129.04587731260844,222.93264796138862],[5.054687055573958e-17,7.031225206413599e-17,0.9868896297611882,0.1613965881604217],[0,0,0,0],[9E9,9E9,9E9,9E9,9E9,9E9]],vSpeed,z10,gripper,\WObj:=wobj1;
MoveJ [[335.2014771270558,-121.27236950380359,228.64265167031368],[4.8315263906079265e-17,7.186399785007235e-17,0.9813381445150152,0.1922900052520337],[0,0,0,0],[9E9,9E9,9E9,9E9,9E9,9E9]],vSpeed,z10,gripper,\WObj:=wobj1;
MoveJ [[334.76279682331835,-113.30735195312079,234.76066329549045],[4.5938711328440044e-17,7.340595149435463e-17,0.9745231270427283,0.22428703676062633],[0,0,0,0],[9E9,9E9,9E9,9E9,9E9,9E9]],vSpeed,z10,gripper,\WObj:=wobj1;
MoveJ [[333.89081083419427,-105.16597576468031,241.20910417163188],[4.3422990514616865e-17,7.492157772015203e-17,0.9663567349962863,0.25720548347054595],[0,0,0,0],[9E9,9E9,9E9,9E9,9E9,9E9]],vSpeed,z10,gripper,\WObj:=wobj1;
MoveJ [[332.63776764784546,-96.86339204260273,247.91039563345095],[4.077763702743431e-17,7.639360727029525e-17,0.9567758179689747,0.29082646741622287],[0,0,0,0],[9E9,9E9,9E9,9E9,9E9,9E9]],vSpeed,z10,gripper,\WObj:=wobj1;
MoveJ [[331.05591575243324,-88.41475189100825,254.7869590156606],[3.801542335892113e-17,7.78050544640339e-17,0.9457459726640675,0.32490699467647205],[0,0,0,0],[9E9,9E9,9E9,9E9,9E9,9E9]],vSpeed,z10,gripper,\WObj:=wobj1;
MoveJ [[329.19750363611917,-79.83520641401746,261.76121565297376],[3.5151887836487135e-17,7.914002587085953e-17,0.9332642994447146,0.3591904054703662],[0,0,0,0],[9E9,9E9,9E9,9E9,9E9,9E9]],vSpeed,z10,gripper,\WObj:=wobj1;
MoveJ [[327.1147797870649,-71.13990671575064,268.7555868801034],[3.220487305143933e-17,8.038435833574818e-17,0.9193608431882279,0.3934153530459008],[0,0,0,0],[9E9,9E9,9E9,9E9,9E9,9E9]],vSpeed,z10,gripper,\WObj:=wobj1;
MoveJ [[324.8599926934319,-62.3440039003283,275.69249403176235],[2.919404655884669e-17,8.152610967554614e-17,0.904098686343528,0.42732372430267307],[0,0,0,0],[9E9,9E9,9E9,9E9,9E9,9E9]],vSpeed,z10,gripper,\WObj:=wobj1;
MoveJ [[322.48539084338165,-53.46264907187069,282.4943584426637],[2.614038651055467e-17,8.255591502968215e-17,0.8875726586303531,0.4606677497414452],[0,0,0,0],[9E9,9E9,9E9,9E9,9E9,9E9]],vSpeed,z10,gripper,\WObj:=wobj1;
MoveJ [[320.04322272507585,-44.51099333449838,289.0836014475205],[2.3065621065206366e-17,8.346721534941486e-17,0.8699066252309935,0.4932164467850031],[0,0,0,0],[9E9,9E9,9E9,9E9,9E9,9E9]],vSpeed,z10,gripper,\WObj:=wobj1;
MoveJ [[317.58573682667594,-35.50418779233158,295.38264438104545],[1.9991612902334314e-17,8.425636075022768e-17,0.8512493049027973,0.5247614895383468],[0,0,0,0],[9E9,9E9,9E9,9E9,9E9,9E9]],vSpeed,z10,gripper,\WObj:=wobj1;
MoveJ [[315.1651816363435,-26.4573835494909,301.31390857795174],[1.693967905065876e-17,8.492258937979907e-17,0.8317685433986216,0.5551225902560041],[0,0,0,0],[9E9,9E9,9E9,9E9,9E9,9E9]],vSpeed,z10,gripper,\WObj:=wobj1;
MoveJ [[312.83380564224,-17.385731710096586,306.799815372952],[1.3929831624351082e-17,8.546788112634193e-17,0.8116439190458635,0.5841525046388758],[0,0,0,0],[9E9,9E9,9E9,9E9,9E9,9E9]],vSpeed,z10,gripper,\WObj:=wobj1;
MoveJ [[310.64385733252715,-8.304383378269149,311.7627861007595],[1.0979917296801348e-17,8.58966840423115e-17,0.7910574820965695,0.6117418246442168],[0,0,0,0],[9E9,9E9,9E9,9E9,9E9,9E9]],vSpeed,z10,gripper,\WObj:=wobj1;
MoveJ [[308.64758519536633,0.7715103418710978,316.12524209608716],[8.104623716136683e-18,8.621550897448279e-17,0.7701823313978269,0.637823781622015],[0,0,0,0],[9E9,9E9,9E9,9E9,9E9,9E9]],vSpeed,z10,gripper,\WObj:=wobj1;
MoveJ [[306.8972377189191,9.826798346203734,319.80960469364777],[5.3143132944073065e-18,8.643238390509759e-17,0.749168635915127,0.662379313506293],[0,0,0,0],[9E9,9E9,9E9,9E9,9E9,9E9]],vSpeed,z10,gripper,\WObj:=wobj1;
MoveJ [[305.44506339134716,18.846329530608266,322.73829522815436],[2.6136478608823157e-18,8.655615378567022e-17,0.728126686883402,0.6854425780823659],[0,0,0,0],[9E9,9E9,9E9,9E9,9E9,9E9]],vSpeed,z10,gripper,\WObj:=wobj1;
MoveJ [[304.3433107008118,27.814952790964416,324.8337350343198],[1.8488927466117464e-32,8.659560562354933e-17,0.7071067811865477,0.7071067811865475],[0,0,0,0],[9E9,9E9,9E9,9E9,9E9,9E9]],vSpeed,z10,gripper,\WObj:=wobj1;
MoveJ [[303.58099931381895,36.99669323674704,326.1084343537816],[2.5941057562264104e-18,8.655674167062206e-17,0.7279719139340319,0.6856069519215966],[0,0,0,0],[9E9,9E9,9E9,9E9,9E9,9E9]],vSpeed,z10,gripper,\WObj:=wobj1;
MoveJ [[303.09850713372253,46.49961657098529,326.64299672023475],[5.249666310951372e-18,8.643633447186981e-17,0.7486730120607554,0.6629394550122024],[0,0,0,0],[9E9,9E9,9E9,9E9,9E9,9E9]],vSpeed,z10,gripper,\WObj:=wobj1;
MoveJ [[302.85363712536173,56.28584267095025,326.50104316333613],[7.972541998576153e-18,8.62278231627717e-17,0.7692043553041891,0.6390028636720394],[0,0,0,0],[9E9,9E9,9E9,9E9,9E9,9E9]],vSpeed,z10,gripper,\WObj:=wobj1;
MoveJ [[302.8041922535758,66.31749141391337,325.7461947127424],[1.0762172221601358e-17,8.592423733954162e-17,0.7895044483720517,0.6137448378607696],[0,0,0,0],[9E9,9E9,9E9,9E9,9E9,9E9]],vSpeed,z10,gripper,\WObj:=wobj1;
MoveJ [[302.9079754832039,76.55668267714562,324.44207239811055],[1.361276368392359e-17,8.551895449661987e-17,0.8094719085499821,0.5871586065693404],[0,0,0,0],[9E9,9E9,9E9,9E9,9E9,9E9]],vSpeed,z10,gripper,\WObj:=wobj1;
MoveJ [[303.1227897790854,86.96553633791866,322.6522972490975],[1.6514401822485306e-17,8.500631415227215e-17,0.8289795559457643,0.5592789070079109],[0,0,0,0],[9E9,9E9,9E9,9E9,9E9,9E9]],vSpeed,z10,gripper,\WObj:=wobj1;
MoveJ [[303.4064381060594,97.50617227350344,320.4404902953599],[1.9454042383834e-17,8.438210206102523e-17,0.8478864642209819,0.5301778416633814],[0,0,0,0],[9E9,9E9,9E9,9E9,9E9,9E9]],vSpeed,z10,gripper,\WObj:=wobj1;
MoveJ [[303.7167234289651,108.14071036117144,317.8702725665548],[2.2416382662081895e-17,8.364391610665059e-17,0.8660480625317912,0.49996075184451294],[0,0,0,0],[9E9,9E9,9E9,9E9,9E9,9E9]],vSpeed,z10,gripper,\WObj:=wobj1;
MoveJ [[304.0114487126418,118.83127047819374,315.0052650923388],[2.5384628567545635e-17,8.279142193365829e-17,0.8833244865092555,0.46876204148070694],[0,0,0,0],[9E9,9E9,9E9,9E9,9E9,9E9]],vSpeed,z10,gripper,\WObj:=wobj1;
MoveJ [[304.24841692192865,129.53997250184165,311.90908890236886],[2.834117671815375e-17,8.182650313645126e-17,0.899587374345877,0.43674083381050016],[0,0,0,0],[9E9,9E9,9E9,9E9,9E9,9E9]],vSpeed,z10,gripper,\WObj:=wobj1;
MoveJ [[304.38543102166483,140.2289363093865,308.64536502630193],[3.126822812080092e-17,8.075330843683646e-17,0.9147252631177506,0.4040763455266366],[0,0,0,0],[9E9,9E9,9E9,9E9,9E9,9E9]],vSpeed,z10,gripper,\WObj:=wobj1;
MoveJ [[304.3802939766897,150.86028177809962,305.2777144937947],[3.414834605529753e-17,7.957819660558371e-17,0.9286476945031178,0.370962881558309],[0,0,0,0],[9E9,9E9,9E9,9E9,9E9,9E9]],vSpeed,z10,gripper,\WObj:=wobj1;
MoveJ [[304.1908087518424,161.39612878525207,301.869758334504],[3.696496753796827e-17,7.830957852157193e-17,0.9412881015146476,0.3376043689689908],[0,0,0,0],[9E9,9E9,9E9,9E9,9E9,9E9]],vSpeed,z10,gripper,\WObj:=wobj1;
MoveJ [[303.7747783119621,171.79859720811527,298.48511757808683],[3.9702876066030965e-17,7.695765423526547e-17,0.9526055217105867,0.3042083496659832],[0,0,0,0],[9E9,9E9,9E9,9E9,9E9,9E9]],vSpeed,z10,gripper,\WObj:=wobj1;
MoveJ [[303.09000562188805,182.02980692396036,295.1874132541999],[4.234864346801958e-17,7.553404073480944e-17,0.9625851656567717,0.2709793328974104],[0,0,0,0],[9E9,9E9,9E9,9E9,9E9,9E9]],vSpeed,z10,gripper,\WObj:=wobj1;
MoveJ [[302.0942936464594,192.05187781005867,292.04026639250003],[4.48910505115788e-17,7.405128288744342e-17,0.9712378579834977,0.2381113672625209],[0,0,0,0],[9E9,9E9,9E9,9E9,9E9,9E9]],vSpeed,z10,gripper,\WObj:=wobj1;
MoveJ [[300.7454453505156,201.8269297436815,289.10729802264416],[4.7321499010740616e-17,7.252223551908589e-17,0.9785983567937007,0.20577962989729787],[0,0,0,0],[9E9,9E9,9E9,9E9,9E9,9E9]],vSpeed,z10,gripper,\WObj:=wobj1;
MoveJ [[299.0012636988956,211.31708260210016,286.4521291742891],[4.96344314860342e-17,7.095929906902594e-17,0.9847225390947185,0.17413075833651745],[0,0,0,0],[9E9,9E9,9E9,9E9,9E9,9E9]],vSpeed,z10,gripper,\WObj:=wobj1;
MoveJ [[296.8195516564388,220.4844562625858,284.13838087709166],[5.182777568322613e-17,6.937348615312974e-17,0.9896834084794155,0.14327159865293093],[0,0,0,0],[9E9,9E9,9E9,9E9,9E9,9E9]],vSpeed,z10,gripper,\WObj:=wobj1;
MoveJ [[294.1581121879844,229.29117060240952,282.2296741607087],[5.3903425846028765e-17,6.777329559178133e-17,0.9935658307564774,0.11325608130776402],[0,0,0,0],[9E9,9E9,9E9,9E9,9E9,9E9]],vSpeed,z10,gripper,\WObj:=wobj1;
MoveJ [[290.97474825837145,237.69934549884297,280.78963005479716],[5.586775230452204e-17,6.616338236328205e-17,0.9964598344009629,0.08407019939078145],[0,0,0,0],[9E9,9E9,9E9,9E9,9E9,9E9]],vSpeed,z10,gripper,\WObj:=wobj1;
MoveJ [[287.22726283243924,245.6711008291572,279.8818695890137],[5.773208369963816e-17,6.454305094281848e-17,0.9984522453950752,0.055615768137575544],[0,0,0,0],[9E9,9E9,9E9,9E9,9E9,9E9]],vSpeed,z10,gripper,\WObj:=wobj1;
MoveJ [[282.87345887502715,253.16855647062346,279.5700137930153],[5.951302198938612e-17,6.29046828701976e-17,0.9996164195653449,0.027695012824700962],[0,0,0,0],[9E9,9E9,9E9,9E9,9E9,9E9]],vSpeed,z10,gripper,\WObj:=wobj1;
MoveJ [[277.87113935097415,260.1538323005132,279.91768369645877],[6.123233995736766e-17,6.123233995736766e-17,1,-6.123233995736766e-17],[0,0,0,0],[9E9,9E9,9E9,9E9,9E9,9E9]],vSpeed,z10,gripper,\WObj:=wobj1;
MoveJ [[271.3047503661562,267.58399871054917,280.8836780972267],[6.123233995736766e-17,6.123233995736766e-17,1,-6.123233995736766e-17],[0,0,0,0],[9E9,9E9,9E9,9E9,9E9,9E9]],vSpeed,z10,gripper,\WObj:=wobj1;
MoveJ [[263.8141191393863,274.5867068104806,282.18492796316156],[6.123233995736766e-17,6.123233995736766e-17,1,-6.123233995736766e-17],[0,0,0,0],[9E9,9E9,9E9,9E9,9E9,9E9]],vSpeed,z10,gripper,\WObj:=wobj1;
MoveJ [[255.46585291130867,281.17725561328024,283.81322159681633],[6.123233995736766e-17,6.123233995736766e-17,1,-6.123233995736766e-17],[0,0,0,0],[9E9,9E9,9E9,9E9,9E9,9E9]],vSpeed,z10,gripper,\WObj:=wobj1;
MoveJ [[246.32655892256705,287.3709441319212,285.76034730074423],[6.123233995736766e-17,6.123233995736766e-17,1,-6.123233995736766e-17],[0,0,0,0],[9E9,9E9,9E9,9E9,9E9,9E9]],vSpeed,z10,gripper,\WObj:=wobj1;
MoveJ [[236.4628444138053,293.18307137937654,288.0180933774984],[6.123233995736766e-17,6.123233995736766e-17,1,-6.123233995736766e-17],[0,0,0,0],[9E9,9E9,9E9,9E9,9E9,9E9]],vSpeed,z10,gripper,\WObj:=wobj1;
MoveJ [[225.94131662566767,298.628936368619,290.57824812963185],[6.123233995736766e-17,6.123233995736766e-17,1,-6.123233995736766e-17],[0,0,0,0],[9E9,9E9,9E9,9E9,9E9,9E9]],vSpeed,z10,gripper,\WObj:=wobj1;
MoveJ [[214.82858279879795,303.72383811262176,293.43259985969786],[6.123233995736766e-17,6.123233995736766e-17,1,-6.123233995736766e-17],[0,0,0,0],[9E9,9E9,9E9,9E9,9E9,9E9]],vSpeed,z10,gripper,\WObj:=wobj1;
MoveJ [[203.19125017384016,308.48307562435775,296.5729368702494],[6.123233995736766e-17,6.123233995736766e-17,1,-6.123233995736766e-17],[0,0,0,0],[9E9,9E9,9E9,9E9,9E9,9E9]],vSpeed,z10,gripper,\WObj:=wobj1;
MoveJ [[191.09592599143804,312.9219479168001,299.9910474638398],[6.123233995736766e-17,6.123233995736766e-17,1,-6.123233995736766e-17],[0,0,0,0],[9E9,9E9,9E9,9E9,9E9,9E9]],vSpeed,z10,gripper,\WObj:=wobj1;
MoveJ [[178.6092174922357,317.0557540029215,303.67871994302203],[6.123233995736766e-17,6.123233995736766e-17,1,-6.123233995736766e-17],[0,0,0,0],[9E9,9E9,9E9,9E9,9E9,9E9]],vSpeed,z10,gripper,\WObj:=wobj1;
MoveJ [[165.79773191687738,320.89979289569504,307.6277426103492],[6.123233995736766e-17,6.123233995736766e-17,1,-6.123233995736766e-17],[0,0,0,0],[9E9,9E9,9E9,9E9,9E9,9E9]],vSpeed,z10,gripper,\WObj:=wobj1;
MoveJ [[152.72807650600657,324.4693636080939,311.8299037683745],[6.123233995736766e-17,6.123233995736766e-17,1,-6.123233995736766e-17],[0,0,0,0],[9E9,9E9,9E9,9E9,9E9,9E9]],vSpeed,z10,gripper,\WObj:=wobj1;
MoveJ [[139.4668585002674,327.77976515309086,316.27699171965116],[6.123233995736766e-17,6.123233995736766e-17,1,-6.123233995736766e-17],[0,0,0,0],[9E9,9E9,9E9,9E9,9E9,9E9]],vSpeed,z10,gripper,\WObj:=wobj1;
MoveJ [[126.080685140304,330.8462965436589,320.9607947667321],[6.123233995736766e-17,6.123233995736766e-17,1,-6.123233995736766e-17],[0,0,0,0],[9E9,9E9,9E9,9E9,9E9,9E9]],vSpeed,z10,gripper,\WObj:=wobj1;
MoveJ [[112.63616366676018,333.68425679277107,325.87310121217064],[6.123233995736766e-17,6.123233995736766e-17,1,-6.123233995736766e-17],[0,0,0,0],[9E9,9E9,9E9,9E9,9E9,9E9]],vSpeed,z10,gripper,\WObj:=wobj1;
MoveJ [[99.1999013202799,336.3089449134004,331.0056993585198],[6.123233995736766e-17,6.123233995736766e-17,1,-6.123233995736766e-17],[0,0,0,0],[9E9,9E9,9E9,9E9,9E9,9E9]],vSpeed,z10,gripper,\WObj:=wobj1;
MoveJ [[85.83850534150699,338.7356599185199,336.3503775083328],[6.123233995736766e-17,6.123233995736766e-17,1,-6.123233995736766e-17],[0,0,0,0],[9E9,9E9,9E9,9E9,9E9,9E9]],vSpeed,z10,gripper,\WObj:=wobj1;
MoveJ [[72.61858297108569,340.97970082110237,341.89892396416263],[6.123233995736766e-17,6.123233995736766e-17,1,-6.123233995736766e-17],[0,0,0,0],[9E9,9E9,9E9,9E9,9E9,9E9]],vSpeed,z10,gripper,\WObj:=wobj1;
MoveJ [[59.60674144965982,343.05636663412093,347.6431270285625],[6.123233995736766e-17,6.123233995736766e-17,1,-6.123233995736766e-17],[0,0,0,0],[9E9,9E9,9E9,9E9,9E9,9E9]],vSpeed,z10,gripper,\WObj:=wobj1;
MoveJ [[46.86958801787316,344.9809563705485,353.5747750040856],[6.123233995736766e-17,6.123233995736766e-17,1,-6.123233995736766e-17],[0,0,0,0],[9E9,9E9,9E9,9E9,9E9,9E9]],vSpeed,z10,gripper,\WObj:=wobj1;
MoveJ [[34.47372991637,346.7687690433582,359.68565619328496],[6.123233995736766e-17,6.123233995736766e-17,1,-6.123233995736766e-17],[0,0,0,0],[9E9,9E9,9E9,9E9,9E9,9E9]],vSpeed,z10,gripper,\WObj:=wobj1;
MoveJ [[22.48577438579412,348.4351036655228,365.96755889871366],[6.123233995736766e-17,6.123233995736766e-17,1,-6.123233995736766e-17],[0,0,0,0],[9E9,9E9,9E9,9E9,9E9,9E9]],vSpeed,z10,gripper,\WObj:=wobj1;
MoveJ [[10.972328666789473,349.9952592500154,372.412271422925],[6.123233995736766e-17,6.123233995736766e-17,1,-6.123233995736766e-17],[0,0,0,0],[9E9,9E9,9E9,9E9,9E9,9E9]],vSpeed,z10,gripper,\WObj:=wobj1;
MoveJ [[0,351.4645348098089,379.01158206847197],[6.123233995736766e-17,6.123233995736766e-17,1,-6.123233995736766e-17],[0,0,0,0],[9E9,9E9,9E9,9E9,9E9,9E9]],vSpeed,z10,gripper,\WObj:=wobj1;
MoveJ [[-11.157473498019794,352.7536001845534,386.26481360357246],[6.123233995736766e-17,6.123233995736766e-17,1,-6.123233995736766e-17],[0,0,0,0],[9E9,9E9,9E9,9E9,9E9,9E9]],vSpeed,z10,gripper,\WObj:=wobj1;
MoveJ [[-22.15949028414706,353.63158311303204,393.9584199158411],[6.123233995736766e-17,6.123233995736766e-17,1,-6.123233995736766e-17],[0,0,0,0],[9E9,9E9,9E9,9E9,9E9,9E9]],vSpeed,z10,gripper,\WObj:=wobj1;
MoveJ [[-33.0164141391751,354.12588909166254,402.06304268680003],[6.123233995736766e-17,6.123233995736766e-17,1,-6.123233995736766e-17],[0,0,0,0],[9E9,9E9,9E9,9E9,9E9,9E9]],vSpeed,z10,gripper,\WObj:=wobj1;
MoveJ [[-43.738608843896486,354.2639236168625,410.54932359797147],[6.123233995736766e-17,6.123233995736766e-17,1,-6.123233995736766e-17],[0,0,0,0],[9E9,9E9,9E9,9E9,9E9,9E9]],vSpeed,z10,gripper,\WObj:=wobj1;
MoveJ [[-54.3364381791038,354.07309218504975,419.3879043308774],[6.123233995736766e-17,6.123233995736766e-17,1,-6.123233995736766e-17],[0,0,0,0],[9E9,9E9,9E9,9E9,9E9,9E9]],vSpeed,z10,gripper,\WObj:=wobj1;
MoveJ [[-64.82026592559035,353.5808002926421,428.54942656704003],[6.123233995736766e-17,6.123233995736766e-17,1,-6.123233995736766e-17],[0,0,0,0],[9E9,9E9,9E9,9E9,9E9,9E9]],vSpeed,z10,gripper,\WObj:=wobj1;
MoveJ [[-75.20045586414847,352.8144534360571,438.00453198798124],[6.123233995736766e-17,6.123233995736766e-17,1,-6.123233995736766e-17],[0,0,0,0],[9E9,9E9,9E9,9E9,9E9,9E9]],vSpeed,z10,gripper,\WObj:=wobj1;
MoveJ [[-85.48737177557166,351.80145711171264,447.7238622752239],[6.123233995736766e-17,6.123233995736766e-17,1,-6.123233995736766e-17],[0,0,0,0],[9E9,9E9,9E9,9E9,9E9,9E9]],vSpeed,z10,gripper,\WObj:=wobj1;
MoveJ [[-95.69137744065186,350.56921681602637,457.67805911028904],[6.123233995736766e-17,6.123233995736766e-17,1,-6.123233995736766e-17],[0,0,0,0],[9E9,9E9,9E9,9E9,9E9,9E9]],vSpeed,z10,gripper,\WObj:=wobj1;
MoveJ [[-105.82283664018233,349.14513804541605,467.8377641746994],[6.123233995736766e-17,6.123233995736766e-17,1,-6.123233995736766e-17],[0,0,0,0],[9E9,9E9,9E9,9E9,9E9,9E9]],vSpeed,z10,gripper,\WObj:=wobj1;
MoveJ [[-115.8921131549563,347.5566262962992,478.1736191499775],[6.123233995736766e-17,6.123233995736766e-17,1,-6.123233995736766e-17],[0,0,0,0],[9E9,9E9,9E9,9E9,9E9,9E9]],vSpeed,z10,gripper,\WObj:=wobj1;
MoveJ [[-125.90957076576575,345.8310870650939,488.6562657176445],[6.123233995736766e-17,6.123233995736766e-17,1,-6.123233995736766e-17],[0,0,0,0],[9E9,9E9,9E9,9E9,9E9,9E9]],vSpeed,z10,gripper,\WObj:=wobj1;
MoveJ [[-135.88557325340415,343.9959258482176,499.2563455592233],[6.123233995736766e-17,6.123233995736766e-17,1,-6.123233995736766e-17],[0,0,0,0],[9E9,9E9,9E9,9E9,9E9,9E9]],vSpeed,z10,gripper,\WObj:=wobj1;
MoveJ [[-145.83048439866386,342.0785481420882,509.9445003562356],[6.123233995736766e-17,6.123233995736766e-17,1,-6.123233995736766e-17],[0,0,0,0],[9E9,9E9,9E9,9E9,9E9,9E9]],vSpeed,z10,gripper,\WObj:=wobj1;
MoveJ [[-155.75466798233816,340.1063594431233,520.6913717902037],[6.123233995736766e-17,6.123233995736766e-17,1,-6.123233995736766e-17],[0,0,0,0],[9E9,9E9,9E9,9E9,9E9,9E9]],vSpeed,z10,gripper,\WObj:=wobj1;
MoveJ [[-165.66848778521967,338.1067652477407,531.4676015426497],[6.123233995736766e-17,6.123233995736766e-17,1,-6.123233995736766e-17],[0,0,0,0],[9E9,9E9,9E9,9E9,9E9,9E9]],vSpeed,z10,gripper,\WObj:=wobj1;
MoveJ [[-175.58230758810086,336.10717105235824,542.2438312950956],[6.123233995736766e-17,6.123233995736766e-17,1,-6.123233995736766e-17],[0,0,0,0],[9E9,9E9,9E9,9E9,9E9,9E9]],vSpeed,z10,gripper,\WObj:=wobj1;
MoveJ [[-185.50649117177517,334.13498235339324,552.9907027290637],[6.123233995736766e-17,6.123233995736766e-17,1,-6.123233995736766e-17],[0,0,0,0],[9E9,9E9,9E9,9E9,9E9,9E9]],vSpeed,z10,gripper,\WObj:=wobj1;
MoveJ [[-195.45140231703513,332.2176046472639,563.6788575260761],[6.123233995736766e-17,6.123233995736766e-17,1,-6.123233995736766e-17],[0,0,0,0],[9E9,9E9,9E9,9E9,9E9,9E9]],vSpeed,z10,gripper,\WObj:=wobj1;
MoveJ [[-205.4274048046733,330.3824434303875,574.2789373676547],[6.123233995736766e-17,6.123233995736766e-17,1,-6.123233995736766e-17],[0,0,0,0],[9E9,9E9,9E9,9E9,9E9,9E9]],vSpeed,z10,gripper,\WObj:=wobj1;
MoveJ [[-215.44486241548296,328.65690419918224,584.7615839353219],[6.123233995736766e-17,6.123233995736766e-17,1,-6.123233995736766e-17],[0,0,0,0],[9E9,9E9,9E9,9E9,9E9,9E9]],vSpeed,z10,gripper,\WObj:=wobj1;
MoveJ [[-225.5141389302565,327.0683924500656,595.0974389105995],[6.123233995736766e-17,6.123233995736766e-17,1,-6.123233995736766e-17],[0,0,0,0],[9E9,9E9,9E9,9E9,9E9,9E9]],vSpeed,z10,gripper,\WObj:=wobj1;
MoveJ [[-235.6455981297874,325.6443136794552,605.2571439750103],[6.123233995736766e-17,6.123233995736766e-17,1,-6.123233995736766e-17],[0,0,0,0],[9E9,9E9,9E9,9E9,9E9,9E9]],vSpeed,z10,gripper,\WObj:=wobj1;
MoveJ [[-245.8496037948676,324.41207338376887,615.2113408100756],[6.123233995736766e-17,6.123233995736766e-17,1,-6.123233995736766e-17],[0,0,0,0],[9E9,9E9,9E9,9E9,9E9,9E9]],vSpeed,z10,gripper,\WObj:=wobj1;

ENDPROC
ENDMODULE